X:1
T:Title
%%score ( 1 2 ) { 3 | 4 }
L:1/8
Q:1/4=117
M:4/4
K:Bb
V:1 treble nm="Grand Piano, Unnamed-000"
V:2 treble 
V:3 bass nm="Choir Pad, Webb, 76.76 D"
V:4 bass 
V:1
 [DF]2 [DB]2- [DB][DB] [Fd]2 | [FB]2 [GB]4 [EG]2 | [GB]2 F2 [FB]2 [Fc]2 | [Fd]2 [Fc]6 | %4
w: By~George~James~Webb,~1830 * * * *||||
 F2 [DB]2- [DB][DB] [Fd]2 | [FB]2 [GB]4 [EG]2 | [GB]2 F2 [DB]2 [Fd]2 | [Ec]2 [DB]6 | %8
w: ||||
 F2 [Fc]2- [Fc][Fc] [FB]2 | [Fc]2 [Fd]4 [Fd]2 | [Fd]2 [Ee]2 [Fd]2 G2 | [Gc]2 B4 A2 | %12
w: ||||
 F2 [DB]2- [DB][DB] [Fd]2 | [FB]2 [GB]4 [EG]2 | [GB]2 F2 [DB]2 [Fd]2 | [Ec]2 [DB]6- | %16
w: ||||
 [DB]2 z2 z4 |] %17
w: |
V:2
 x8 | x8 | x8 | x8 | x8 | x8 | x8 | x8 | x8 | x8 | x8 | z2 F6 | x8 | x8 | x8 | x8 | x8 |] %17
V:3
 B,2 B,2- B,B, B,2 | B,2 B,4 B,2 | B,2 B,2 B,2 A,2 | B,2 A,6 | A,2 B,2- B,B, B,2 | B,2 B,4 B,2 | %6
 B,2 B,2 B,2 B,2 | A,2 B,6 | F,2 A,2- A,A, G,2 | A,2 B,4 B,2 | B,A, B,2 B,2 B,2 | E2 D4 C2 | %12
 A,2 B,2- B,B, B,2 | B,2 B,4 B,2 | B,2 B,2 B,2 B,2 | A,2 B,6- | B,2 z2 z4 |] %17
V:4
 B,,2 B,,2- B,,B,, B,,2 | D,2 E,4 E,2 | E,2 D,2 D,2 C,2 | B,,2 F,6 | F,2 B,,2- B,,B,, B,,2 | %5
 D,2 E,4 E,2 | E,2 D,2 B,,2 F,2 | F,2 B,,6 | z2 F,2- F,F, F,2 | F,2 z2 z4 | z2 G,2 F,2 E,2 | %11
 C,2 F,6 | F,2 B,,2- B,,B,, B,,2 | D,2 E,4 E,2 | E,2 D,2 B,,2 F,2 | F,2 B,,6- | B,,2 z2 z4 |] %17

